images/logo.svg

<svg width="130" height="27" viewBox="0 0 130 27" fill="none" xmlns="http://www.w3.org/2000/svg">
<g clip-path="url(#clip0_1604_365)">
<path d="M129.77 20.1089V23.326H127.071C124.191 23.2355 122.652 21.6804 122.652 18.7595V11.4121H120.768V8.58991H122.652V5.43042H126.635V8.557H129.679V11.3709H126.635V18.3646C126.635 19.3108 126.824 20.0678 128.28 20.0678L129.77 20.1089Z" fill="#111111"/>
<path d="M104.897 15.9866V15.7727C104.854 14.8264 104.998 13.8809 105.321 12.9903C105.644 12.0998 106.14 11.2818 106.779 10.5832C107.419 9.88455 108.19 9.31906 109.049 8.91911C109.908 8.51915 110.837 8.2926 111.784 8.25244C111.973 8.25244 112.17 8.25244 112.36 8.25244C116.12 8.25244 119.419 10.441 119.419 15.6575V16.7683H108.97C109.077 19.1708 110.377 20.5284 112.565 20.5284C114.449 20.5284 115.33 19.7056 115.585 18.5043H119.345C118.884 21.6391 116.383 23.3835 112.425 23.3835C108.081 23.3505 104.897 20.6024 104.897 15.9866ZM115.503 14.2505C115.363 12.0619 114.26 11.0088 112.343 11.0088C110.426 11.0088 109.323 12.1936 109.052 14.2505H115.503Z" fill="#111111"/>
<path d="M88.6386 15.9866V15.7727C88.5955 14.8277 88.739 13.8835 89.061 12.994C89.383 12.1045 89.8772 11.2872 90.5152 10.5888C91.1533 9.89038 91.9227 9.32457 92.7795 8.92368C93.6364 8.5228 94.5638 8.2947 95.5088 8.25244C95.6981 8.25244 95.8955 8.25244 96.0848 8.25244C99.8449 8.25244 103.153 10.441 103.153 15.6575V16.7683H92.7114C92.8183 19.1708 94.1183 20.5284 96.3069 20.5284C98.1911 20.5284 99.0715 19.7056 99.3266 18.5043H103.087C102.618 21.6391 100.116 23.3835 96.1588 23.3835C91.8228 23.3505 88.6386 20.6024 88.6386 15.9866ZM99.2443 14.2505C99.1044 12.0619 98.0019 11.0088 96.0848 11.0088C94.1677 11.0088 93.0981 12.2265 92.7936 14.2423L99.2443 14.2505Z" fill="#111111"/>
<path d="M65.8228 8.55688H70.0354L72.6107 18.3151L75.4329 8.55688H78.724L81.2746 18.3151L83.9898 8.55688H87.8487L83.274 23.0544H79.3247L76.8563 13.9544L74.2152 23.0544H70.2164L65.8228 8.55688Z" fill="#111111"/>
<path d="M52.436 18.4963H56.1962C56.369 19.8045 57.0189 20.5533 58.7468 20.5533C60.2936 20.5533 61.0095 19.9691 61.0095 18.9735C61.0095 17.978 60.1867 17.5583 58.0803 17.2621C54.2215 16.678 52.7322 15.5672 52.7322 12.7368C52.7322 9.71719 55.4968 8.21973 58.4917 8.21973C61.7088 8.21973 64.136 9.38808 64.4816 12.7204H60.7708C60.7472 12.4627 60.6727 12.2124 60.5517 11.9837C60.4307 11.7551 60.2656 11.5527 60.0659 11.3882C59.8662 11.2237 59.6359 11.1004 59.3883 11.0254C59.1408 10.9505 58.8808 10.9253 58.6234 10.9514H58.5C57.2 10.9514 56.443 11.5602 56.443 12.4488C56.443 13.3374 57.1424 13.7242 59.2652 14.0286C62.8689 14.5716 64.8848 15.4849 64.8848 18.5868C64.8848 21.6887 62.6057 23.3507 58.7879 23.3507C54.9702 23.3507 52.543 21.6311 52.436 18.4963Z" fill="#111111"/>
<path d="M36.4575 8.55692H40.4398V10.8525C40.8887 10.0099 41.57 9.3139 42.4028 8.84717C43.2356 8.38044 44.1849 8.16262 45.1379 8.21958C47.9601 8.21958 50.0088 9.9392 50.0088 13.8639V23.0873H46.0759V14.4398C46.0759 12.4734 45.3107 11.5354 43.5335 11.5354C43.1578 11.5027 42.7794 11.5445 42.42 11.6584C42.0606 11.7723 41.7272 11.9561 41.439 12.1992C41.1508 12.4424 40.9134 12.74 40.7405 13.0751C40.5676 13.4102 40.4627 13.7761 40.4316 14.1519C40.411 14.3268 40.411 14.5035 40.4316 14.6784V23.0544H36.4575V8.55692Z" fill="#111111"/>
<path d="M28.7728 4.91207C28.7584 4.51502 28.8621 4.12261 29.0708 3.78454C29.2795 3.44646 29.5838 3.17791 29.9453 3.01289C30.3067 2.84788 30.7089 2.79381 31.1011 2.85754C31.4933 2.92127 31.8577 3.09993 32.1483 3.3709C32.4388 3.64186 32.6425 3.99296 32.7334 4.37973C32.8243 4.7665 32.7984 5.17154 32.659 5.54359C32.5196 5.91564 32.2729 6.23796 31.9502 6.46973C31.6275 6.70151 31.2433 6.83232 30.8462 6.84561H30.7722C30.5257 6.86121 30.2786 6.828 30.045 6.74787C29.8114 6.66775 29.596 6.5423 29.411 6.37871C29.226 6.21512 29.0751 6.01662 28.967 5.79458C28.8589 5.57255 28.7957 5.33136 28.781 5.08485C28.7742 5.02752 28.7715 4.96978 28.7728 4.91207ZM28.7728 8.557H32.7962V23.0545H28.7893L28.7728 8.557Z" fill="#111111"/>
<path d="M13.6089 3.2417H26.3291V6.75499H18.1013V11.9961H24.6177V15.3778H18.0931V23.0544H13.6089V3.2417Z" fill="#111111"/>
<path d="M5.93228 9.72532C5.93228 10.9677 5.93228 12.4816 4.22089 13.0987C5.97342 13.6994 5.93228 14.9747 5.93228 16.3076V21.2443C5.93228 22.1823 6.31076 22.75 6.98544 22.8899C7.13369 22.9399 7.28988 22.9622 7.4462 22.9557H9.09177V26.2468H6.37658C3.48038 26.2468 1.88418 24.6013 1.88418 21.5487V15.707C1.86364 15.4071 1.7314 15.1257 1.51357 14.9186C1.29574 14.7114 1.00816 14.5934 0.707595 14.588H0V11.7H0.707595C1.01415 11.696 1.30739 11.574 1.52646 11.3596C1.74553 11.1451 1.87363 10.8545 1.88418 10.5481V4.62405C1.88418 1.62089 3.44747 0 6.37658 0H9.11646V3.24177H7.47089C7.31437 3.24222 7.1589 3.26721 7.01013 3.31582C6.33544 3.48861 5.95696 4.0481 5.95696 4.96139L5.93228 9.72532Z" fill="#111111"/>
</g>
<defs>
<clipPath id="clip0_1604_365">
<rect width="130" height="26.3291" fill="white"/>
</clipPath>
</defs>
</svg>

<svg xmlns="http://www.w3.org/2000/svg" width="130" height="27" fill="none"><g fill="#111" clip-path="url(#a)"><path d="M129.77 20.109v3.217h-2.699c-2.88-.09-4.419-1.646-4.419-4.567v-7.347h-1.884V8.59h1.884V5.43h3.983v3.127h3.044v2.814h-3.044v6.994c0 .946.189 1.703 1.645 1.703l1.49.04ZM104.897 15.987v-.214a7.202 7.202 0 0 1 6.887-7.52h.576c3.76 0 7.059 2.188 7.059 7.405v1.11H108.97c.107 2.403 1.407 3.76 3.595 3.76 1.884 0 2.765-.822 3.02-2.024h3.76c-.461 3.135-2.962 4.88-6.92 4.88-4.344-.034-7.528-2.782-7.528-7.397Zm10.606-1.736c-.14-2.19-1.243-3.242-3.16-3.242s-3.02 1.185-3.291 3.242h6.451ZM88.639 15.987v-.214a7.2 7.2 0 0 1 6.87-7.52h.576c3.76 0 7.068 2.188 7.068 7.405v1.11H92.711c.107 2.403 1.407 3.76 3.596 3.76 1.884 0 2.764-.822 3.02-2.024h3.76c-.469 3.135-2.971 4.88-6.928 4.88-4.336-.034-7.52-2.782-7.52-7.397Zm10.605-1.736c-.14-2.19-1.242-3.242-3.16-3.242-1.916 0-2.986 1.217-3.29 3.233l6.45.008ZM65.823 8.557h4.212l2.576 9.758 2.822-9.758h3.291l2.55 9.758 2.716-9.758h3.859l-4.575 14.497h-3.95l-2.468-9.1-2.64 9.1h-4L65.823 8.557ZM52.436 18.496h3.76c.173 1.309.823 2.057 2.55 2.057 1.548 0 2.264-.584 2.264-1.58 0-.995-.823-1.415-2.93-1.71-3.858-.585-5.348-1.696-5.348-4.526 0-3.02 2.765-4.517 5.76-4.517 3.217 0 5.644 1.168 5.99 4.5H60.77a1.957 1.957 0 0 0-2.148-1.769H58.5c-1.3 0-2.057.61-2.057 1.498s.7 1.275 2.822 1.58c3.604.543 5.62 1.456 5.62 4.558s-2.28 4.764-6.097 4.764c-3.818 0-6.245-1.72-6.352-4.855ZM36.458 8.557h3.982v2.295a4.986 4.986 0 0 1 4.698-2.632c2.822 0 4.87 1.72 4.87 5.644v9.223h-3.932V14.44c0-1.967-.765-2.905-2.543-2.905a2.864 2.864 0 0 0-3.101 2.617 2.25 2.25 0 0 0 0 .526v8.376h-3.974V8.557ZM28.773 4.912a2.008 2.008 0 1 1 2.073 1.934h-.074a1.876 1.876 0 0 1-1.991-1.761 1.231 1.231 0 0 1-.008-.173Zm0 3.645h4.023v14.498H28.79l-.016-14.498ZM13.609 3.242h12.72v3.513h-8.228v5.241h6.517v3.382h-6.525v7.676H13.61V3.242ZM5.932 9.725c0 1.243 0 2.757-1.711 3.374 1.752.6 1.711 1.876 1.711 3.209v4.936c0 .938.379 1.506 1.053 1.646.149.05.305.072.461.066h1.646v3.29H6.377c-2.897 0-4.493-1.645-4.493-4.697v-5.842a1.201 1.201 0 0 0-1.176-1.119H0V11.7h.708a1.193 1.193 0 0 0 1.176-1.152V4.624C1.884 1.621 3.447 0 6.377 0h2.74v3.242H7.47c-.157 0-.312.025-.46.074-.676.173-1.054.732-1.054 1.645l-.025 4.764Z"/></g><defs><clipPath id="a"><path fill="#fff" d="M0 0h130v26.329H0z"/></clipPath></defs></svg>
